src/images/std-icons/std-all_questions.svg

<svg xmlns="http://www.w3.org/2000/svg" width="512" height="512" viewBox="0 0 512 512">
  <title>all questions</title>
  <path d="M448,42.6666667 L149.333333,42.6666667 C137.551259,42.6666667 128,52.2179253 128,64 L128,362.666667 C128,374.448741 137.551259,384 149.333333,384 L448,384 C459.782075,384 469.333333,374.448741 469.333333,362.666667 L469.333333,64 C469.333333,52.2179253 459.782075,42.6666667 448,42.6666667 Z M426.666667,341.333333 L170.666667,341.333333 L170.666667,85.3333333 L426.666667,85.3333333 L426.666667,341.333333 Z"/>
  <path d="M362.666667 426.666667L85.3333333 426.666667 85.3333333 149.333333C85.3333333 137.551259 75.7820747 128 64 128 52.2179253 128 42.6666667 137.551259 42.6666667 149.333333L42.6666667 448C42.6666667 459.782075 52.2179253 469.333333 64 469.333333L362.666667 469.333333C374.448741 469.333333 384 459.782075 384 448 384 436.217925 374.448741 426.666667 362.666667 426.666667zM294.826667 266.88C283.044592 266.88 273.493333 276.431259 273.493333 288.213333 273.493333 299.995408 283.044592 309.546667 294.826667 309.546667 306.608741 309.546667 316.16 299.995408 316.16 288.213333 316.16 276.431259 306.608741 266.88 294.826667 266.88zM252.16 181.12C277.333333 181.12 264.32 146.773333 297.6 146.773333 303.854448 145.693678 310.264858 147.454979 315.089639 151.578723 319.914419 155.702467 322.652502 161.760391 322.56 168.106667 322.56 193.493333 277.12 200.533333 277.12 232.106667 276.885888 236.665773 278.535119 241.120841 281.681458 244.428531 284.827798 247.736221 289.19489 249.606007 293.76 249.600014 310.826667 249.600014 308.693333 236.8 315.093333 228.266667 321.493333 219.733333 362.666667 202.88 362.666667 169.173333 362.666667 135.466667 329.386667 117.333333 296.106667 117.333333 262.826667 117.333333 234.666667 139.733333 234.666667 165.333333 234.570062 169.855827 236.444633 174.196852 239.802867 177.227453 243.161102 180.258055 247.671113 181.678727 252.16 181.12L252.16 181.12z"/>
</svg>

<svg xmlns="http://www.w3.org/2000/svg" viewBox="0 0 512 512">
  <title>
    all questions
  </title>
  <path d="M448 42.67H149.33A21.33 21.33 0 0 0 128 64v298.67A21.33 21.33 0 0 0 149.33 384H448a21.33 21.33 0 0 0 21.33-21.33V64A21.33 21.33 0 0 0 448 42.67zm-21.33 298.66h-256v-256h256v256z"/>
  <path d="M362.67 426.67H85.33V149.33a21.33 21.33 0 0 0-42.66 0V448A21.33 21.33 0 0 0 64 469.33h298.67a21.33 21.33 0 1 0 0-42.66zm-67.84-159.79a21.33 21.33 0 1 0 0 42.67 21.33 21.33 0 0 0 0-42.67zm-42.67-85.76c25.17 0 12.16-34.35 45.44-34.35a21.33 21.33 0 0 1 24.96 21.34c0 25.38-45.44 32.42-45.44 64a16.64 16.64 0 0 0 16.64 17.49c17.07 0 14.93-12.8 21.33-21.33 6.4-8.54 47.58-25.39 47.58-59.1 0-33.7-33.28-51.84-66.56-51.84s-61.44 22.4-61.44 48a15.57 15.57 0 0 0 17.49 15.79z"/>
</svg>
